X:1
T:Wives And Lovers
T:Wives And Lovers
C:Burt Bacharach
Z:All Rights Reserved
L:1/4
M:3/4
K:Eb
V:1 treble nm="Voice"
%%MIDI program 52
V:1
|:"Fm7" c z G/>F/ |"Fm9" G z C/>B,/ |"Fm7" C z C/>B,/ |"Fm9" C G2 |"Fm7" C2 C/>B,/ | C E c | %6
w: Hey, lit tle|girl, comb your|hair, fix your|make- up,|soom he will|op- en the|
w: Day af- ter|day, there are|girls at the|of- fice|and men will|al- ways be|
"Fm9" G3- | G z z |"Gm7" d z =A/G/ |"Gm9" =A z D/C/ |"Gm7" D z D/C/ |"Gm9" D =A2 |"Gm7" D2 D/C/ | %13
w: door.||Don't think be-|cause there's a|ring on your|fin- ger|you need- 'nt|
w: men.||Don't send him|off with your|hair still in|cur- lers|you may not|
 D F d |"Gm9" =A3- |"C9" =A2 G |"Cm9" c2 B |"F7b9" d d2 |"Am7b5" c B c |"D7" d3 |"Ebmaj9" d2 c/d/ | %21
w: try an- y-|more.|* For|wives should|al- ways|be lov- ers|too.|Run to his|
w: see him a-|gain.|* For|wives should|al- ways|be love- ers|too.|Run to his|
"Ebmaj9" f- f/e/ d/c/ |"D7sus4" d- d/c/ d/c/ |"D7" d2 =A |"Dbmaj7" c2 B |1"C7sus4" c3- || %26
w: arms * the mo- ment|he * comes home to|you. I'm|warn- ing|you.|
w: arms * the mo- ment|he * comes home to|you. He's|al- most||
"C7" c3 :|2"C7sus4" c3- ||"C7" c3 |"Fm7" c z G/>F/ |"Fm9" G z C/>B,/ |"Fm7" C z C/>B,/ | %32
w: |||Hey lit- tle|girl, bet- ter|wear some- thing|
w: |here.|||||
"Fm9" C G z |"Fm7" C z C/>B,/ |"Bb9" C G z |"Eb6" C z C/>B,/ | C E"Edim" G |"Fm7" c z G/>F/ | %38
w: pret- ty|some thing you'd|wear to|go to the|cit- y; And|dim all the|
w: ||||||
"Fm6" G z C/>B,/ |"Fm7" C z C/>B,/ |"Fm9" C G z |"Fm7" C z C/>B,/ |"Bb9" C G z3/4 C/4 |"Eb6" G3- | %44
w: lights, pour the|wine, start the|mus- ic|time to get|read- y for|love.|
w: ||||||
 G2 c |"Fm7" C z C/>B,/ |"Bb9" C G z |"Fm7" C z C/>B,/ |"Bb9" C G z |"Fm7" C z C/>B,/ | %50
w: * Oh,|time to get|read- y|time to get|read- y,|time to get|
w: ||||||
"Bb9" C G z3/4 C/4 |"Eb6" G3- | G z z |] %53
w: read- y for|love||
w: |||

